X:5823
T:Schottis 1
O:england
C:August Johansson, Hälsingland
M:2/4
L:1/16
K:C
E2FA GcEG|C2DF EGCE|\
G,2B,D FDB,D|CcBA G2EC|\
E2FA GcEG|C2DF EGCE|
G,2B,D FDB,D|C2EG C4:|\
|:c2cc c2c2|B2AA A2A2|\
D2BB B2B2|A2GG G2(3EGE|
C2AA A2A2|GcEG C2C2|\
GcBA G2B,D|1 D2C2 C4:|2 D2C2 C2CE\
|:G2G2 F2F2|EGCE G2G2|
FADF B2B2|AGEG c2c2|\
G2G2 F2F2|EGCE G2G2|FADF B2B2|c2cc c4:|


